X:1
T:Title
%%score { ( 1 3 ) | 2 }
L:1/8
Q:1/4=120
M:6/4
K:F
V:1 treble nm="Grand Piano"
V:3 treble 
V:2 bass 
V:1
 c2 d2 c2 A2 G2 F2 | [DG]2 [DF]2 D2 D2 C4 | F2 F2 F2 d2 c2 A2 | z6 [EG]6 | c2 d2 c2 A2 G2 F2 | %5
w: C.~Harold~Lowden * * * * *|||||
 [DG]2 [DF]2 D2 D2 C4 | F2 F2 d2 c2 A2 F2 | [B,EG]2 [B,DF]2 [B,EG]2 [A,F]6 | %8
w: |||
 [DF]2 [DB]2 d2 f2 e2 d2 | c2 A2 d2 c2 A4 | G2 G2 G2 c2 [Gc]2 [Ad]2 | e2 G2 d2 z4 B,2 | %12
w: ||||
 c2 d2 c2 A2 G2 F2 | F2 A2 c2 d2 d4 | f2 e2 d2 c2 A2 F2 | [B,EG]2 [B,DF]2 [B,EG]2 [A,F]6 |] %16
w: ||||
V:2
 [F,A,F]2 [F,B,F]2 [F,A,F]2 [F,CF]2 [F,B,C]2 [F,A,C]2 | %1
 [B,,B,]2 [B,,B,]2 [B,,F,B,]2 [F,B,]2 [F,A,]4 | %2
 [F,A,C]2 [F,A,C]2 [F,A,C]2[K:treble] [F,B,F]2 [F,A,F]2 [F,CF]2 | %3
 [G,=B,F]2 [G,B,E]2[K:bass] [G,B,D]2 .[C,C]6 | %4
 [F,A,F]2 [F,B,F]2 [F,A,F]2 [F,CF]2 [F,B,C]2 [F,A,C]2 | %5
 [B,,B,]2 [B,,B,]2 [B,,F,B,]2 [F,B,]2 [F,A,]4 | %6
 [F,A,C]2 [F,A,C]2 [F,B,F]2 [F,A,F]2 [F,CF]2 [F,A,]2 | C,2 C,2 C,2 F,6 | %8
 [B,,B,]2 [B,,B,]2[K:treble] [B,F]2 [B,DF]2 [B,CF]2 [B,F]2 | %9
 [F,A,F]2[K:bass] [F,CF]2 [F,B,F]2 [F,A,F]2 [F,CF]4 | %10
 [G,CE]2 [G,CE]2 [F,=B,D]2 [E,G,C]2 [E,C]2 [F,C]2 | [G,CG]2 [G,CE]2 [G,=B,F]2[K:bass] .[C,C]6 | %12
 [F,A,F]2 [F,B,F]2 [F,A,F]2 [F,CF]2 [F,B,C]2 [F,A,C]2 | %13
 [F,A,C]2[K:treble] [F,CF]2 [A,_EF]2 [B,DF]2 [B,DF]4 | %14
 [B,DF]2 [B,CF]2 [B,F]2[K:bass] [F,A,F]2 [F,CF]2 [F,A,]2 | C,2 C,2 C,2 F,6 |] %16
V:3
 x12 | x12 | x12 | A2 G2 F2 z4 B,2 | x12 | x12 | x12 | x12 | x12 | x12 | x12 | z6 [Ec]6 | x12 | %13
 x12 | x12 | x12 |] %16

